src/lib/packages/icons/src/assets/line/grid-web-6.svg

<svg xmlns="http://www.w3.org/2000/svg" width="24" height="24" fill="none"><path fill="currentColor" d="M8.5 20.75h-3c-1.409 0-2.25-.841-2.25-2.25v-13c0-1.409.841-2.25 2.25-2.25h3c1.409 0 2.25.841 2.25 2.25v13c0 1.409-.841 2.25-2.25 2.25Zm-3-16c-.589 0-.75.161-.75.75v13c0 .589.161.75.75.75h3c.589 0 .75-.161.75-.75v-13c0-.589-.161-.75-.75-.75h-3Zm13 16h-3c-1.409 0-2.25-.841-2.25-2.25v-13c0-1.409.841-2.25 2.25-2.25h3c1.409 0 2.25.841 2.25 2.25v13c0 1.409-.841 2.25-2.25 2.25Zm-3-16c-.589 0-.75.161-.75.75v13c0 .589.161.75.75.75h3c.589 0 .75-.161.75-.75v-13c0-.589-.161-.75-.75-.75h-3Z"/></svg>

<svg width="24" height="24" viewBox="0 0 24 24" fill="none" xmlns="http://www.w3.org/2000/svg">
<path d="M8.5 20.75H5.5C4.091 20.75 3.25 19.909 3.25 18.5V5.5C3.25 4.091 4.091 3.25 5.5 3.25H8.5C9.909 3.25 10.75 4.091 10.75 5.5V18.5C10.75 19.909 9.909 20.75 8.5 20.75ZM5.5 4.75C4.911 4.75 4.75 4.911 4.75 5.5V18.5C4.75 19.089 4.911 19.25 5.5 19.25H8.5C9.089 19.25 9.25 19.089 9.25 18.5V5.5C9.25 4.911 9.089 4.75 8.5 4.75H5.5ZM18.5 20.75H15.5C14.091 20.75 13.25 19.909 13.25 18.5V5.5C13.25 4.091 14.091 3.25 15.5 3.25H18.5C19.909 3.25 20.75 4.091 20.75 5.5V18.5C20.75 19.909 19.909 20.75 18.5 20.75ZM15.5 4.75C14.911 4.75 14.75 4.911 14.75 5.5V18.5C14.75 19.089 14.911 19.25 15.5 19.25H18.5C19.089 19.25 19.25 19.089 19.25 18.5V5.5C19.25 4.911 19.089 4.75 18.5 4.75H15.5Z" fill="currentColor"/>
</svg>
